X:659
T:Seor San Xuan
R:Danza
C:Tradicional (Victor )
S:Msica Tradicional Asturiana, (C) Tello & Tito. Asturies, 2001.
S:http://pagina.de/MusTradAst <telloytito@asturies.org>
A:Asturies
Z:Curdin
M:3/4
L:1/4
Q:1/4=200
K:C
|C3/2 C/ D|E3|C3/2 C/ D|E3/2 D/ E|F3/2 E/ D|E3|C3/2 C/ D|E3/2 D/ E|F3/2 E/ D|C3|D C B,|C3-|C z2|
[K:F]
|F3/2 F/ G|A3|F3/2 F/ G|A3/2 G/ A|B3/2 A/ G|A3|F3/2 F/ G|A3/2 G/ A|B3/2 A/ G|F3|GFE|F3-|F z2
W:Seor San Xuan,
W:gei ye la nueche del Seor San Xuan
W:viva la danza y los que nella tn,
W:Sor San Xuan.
W:
W:Seor San Xuan,
W:y na foguera nun hai qu quemar,
W:viva la danza y los que nella tn,
W:Seor San Xuan.
W:
W:Seor San Xuan,
W:y les estrelles a metese van,
W:viva la danza y los que nella tn,
W:Seor San Xuan.
W:
